src/icons/svg-old/vs2.svg

<svg class="icon" width="200" height="200" viewBox="0 0 1024 1024" xmlns="http://www.w3.org/2000/svg"><path d="M480 64C215.04 64 0 279.04 0 544c0 264.96 215.04 480 480 480s480-215.04 480-480c0-264.96-215.04-480-480-480zm-32 300.16L320.64 745.6c-4.48 12.8-16.64 21.76-30.08 21.76s-25.6-8.96-30.08-21.76L133.12 364.16c-5.76-16.64 3.2-34.56 19.84-40.32 16.64-5.76 34.56 3.2 40.32 19.84l97.28 291.2 97.28-291.2c5.76-16.64 23.68-25.6 40.32-19.84 16 5.76 25.6 23.68 19.84 40.32zm160.64 148.48C704 512.64 768 563.84 768 640c0 78.08-60.8 127.36-159.36 127.36-92.16 0-159.36-53.76-159.36-127.36 0-17.28 14.08-32 32-32s32 14.08 32 32c0 37.12 39.04 63.36 95.36 63.36 35.84 0 95.36-8.32 95.36-63.36 0-60.8-79.36-63.36-95.36-63.36-95.36 0-159.36-51.2-159.36-127.36 0-78.72 60.8-127.36 159.36-127.36 92.16 0 159.36 53.76 159.36 127.36 0 17.28-14.08 32-32 32s-32-14.08-32-32c0-37.12-39.04-63.36-95.36-63.36-35.84 0-95.36 8.32-95.36 63.36 0 60.8 79.36 63.36 95.36 63.36z"/></svg>

<?xml version="1.0" standalone="no"?><!DOCTYPE svg PUBLIC "-//W3C//DTD SVG 1.1//EN" "http://www.w3.org/Graphics/SVG/1.1/DTD/svg11.dtd"><svg class="icon" width="200px" height="200.00px" viewBox="0 0 1024 1024" version="1.1" xmlns="http://www.w3.org/2000/svg"><path fill="#333333" d="M480 64C215.04 64 0 279.04 0 544 0 808.96 215.04 1024 480 1024S960 808.96 960 544C960 279.04 744.96 64 480 64zM448 364.16l-127.36 381.44c-4.48 12.8-16.64 21.76-30.08 21.76s-25.6-8.96-30.08-21.76L133.12 364.16C127.36 347.52 136.32 329.6 152.96 323.84c16.64-5.76 34.56 3.2 40.32 19.84l97.28 291.2 97.28-291.2c5.76-16.64 23.68-25.6 40.32-19.84C444.16 329.6 453.76 347.52 448 364.16zM608.64 512.64C704 512.64 768 563.84 768 640c0 78.08-60.8 127.36-159.36 127.36-92.16 0-159.36-53.76-159.36-127.36 0-17.28 14.08-32 32-32 17.92 0 32 14.08 32 32 0 37.12 39.04 63.36 95.36 63.36 35.84 0 95.36-8.32 95.36-63.36 0-60.8-79.36-63.36-95.36-63.36-95.36 0-159.36-51.2-159.36-127.36 0-78.72 60.8-127.36 159.36-127.36 92.16 0 159.36 53.76 159.36 127.36 0 17.28-14.08 32-32 32S704 467.2 704 449.28c0-37.12-39.04-63.36-95.36-63.36-35.84 0-95.36 8.32-95.36 63.36C513.28 510.08 592.64 512.64 608.64 512.64z" /></svg>
